X: 27635
T: Moondog, The
R: reel
M: 4/4
K: Gmajor
|:DGGF G2BG|AdcA BAGF|DGFG EGDB|dcAG FAFD|
AGFA G3A|BdcA BAGD|EccB dcBc|degf dcAc:|
|:dggf g2ge|dege dBAd|cAae gfd^c|defd cAFA|
dgge b3a|gedg edBA|cAae gfdc|AGFA G4:|

